X:1
T:One Day
T:Charles Howard Marsh
T:One Day
T:Public Domain
T:Public Domain
T:Public Domain
C:Charles Howard Marsh
Z:Public Domain
%%score 1 2
L:1/8
M:9/4
K:Db
V:1 treble 
V:2 bass 
V:1
 [FA]2 [DF]2 [EG]2 [FA]6 [FB]4 [Fc]2 | [Fd]2 [Fc]2 [FB]2 [FA]6 [DF]6 | %2
w: 1.~One day when Heav- en was|filled with His prais- es,|
w: 2.~One day they led Him up|Cal- va- ry’s mount- ain,|
w: 3.~One day they left Him a-|lone in the gar- den,|
w: 4.~One day the grave could con-|ceal Him no long- er,|
w: 5.~One day the trum- pet will|sound for His com- ing,|
 [CG]2 [CE]2 [DF]2 [EG]6 [DF]4 [EG]2 | [CA]2 [DA]2 [EG]2 [DF]12 | %4
w: One day when sin was as|black as could be,|
w: One day they nailed Him to|die on the tree;|
w: One day He rest- ed, from|suf- fer- ing free;|
w: One day the stone rolled a-|way from the door;|
w: One day the skies with His|glor- ies will shine;|
 [FA]2 [DF]2 [EG]2 [FA]6 [FB]4 [Fc]2 [Fd]2 [Fc]2 [FB]2 [FA]6 [DF]6 | %5
w: Je- sus came forth to be born of a vir- gin,|
w: Suf- fer- ing an- guish, de- spised and re- ject- ed:|
w: An- gels came down o’er His tomb to keep vi- gil;|
w: Then He a- rose, o- ver death He had con- quered;|
w: Won- der- ful day, my be- lov- èd ones bring- ing;|
 [CE]2 [EA]2 [EB]2 [Ec]6 [EB]4 [EA]2 | [DB]2 [DE]2 [DB]2 ([CA]6 [GA]6) || %7
w: Dwelt a- mong men, my ex-|am- ple is He! *|
w: Bear- ing our sins, my Re-|deem- er is He! *|
w: Hope of the hope- less, my|Sav- ior is He! *|
w: Now is a- scend- ed, my|Lord ev- er- more! *|
w: Glor- i- ous Sav- ior, this|Je- sus is mine! *|
"^Refrain" [Fd]2 [FB]2 [Fd]2 [Gc]6 [CG]6 | [CB]2 [Cc]2 [CB]2 [DA]6 [DF]6 | %9
w: ||
w: ||
w: Liv- ing, He loved me;|dy- ing, He saved me;|
w: ||
w: ||
 [DA]2 [CG]2 [DF]2 [DB]6 [=DB]4 [DB]2 | [Fd]2 [Ec]2 [EB]2 ([Ee]6 [Ge]6) | %11
w: ||
w: ||
w: Bur- ied, He ca- rried my|sins far a- way; *|
w: ||
w: ||
 [Fd]2 [FB]2 [Fd]2 [Gc]4 [EG]2 [EG]6 [GB]2 [Gc]2 [Ge]2 [Fd]6 [FA]6 | %12
w: |
w: |
w: Ris- ing, He jus- ti- fied free- ly for- ev- er;|
w: |
w: |
 !>![GB]2 !>![GB]2 !>![AB]2 !>![=Ge]6 !>![GB]4 !>![Gd]2 | !>![Gc]2 !>![GA]2 !>![Ge]2 !>![Fd]12 |] %14
w: ||
w: ||
w: One day He’s com- ing— O|glor- i- ous day!|
w: ||
w: ||
V:2
 [D,A,]2 [D,A,]2 [D,A,]2 [D,D]6 [D,D]4 [D,A,]2 | [D,A,]2 [D,A,]2 [D,A,]2 [D,D]6 [D,A,]6 | %2
 [A,,A,]2 [A,,A,]2 [A,,A,]2 [C,A,]6 [A,,A,]4 [A,,A,]2 | [A,,A,]2 [B,,A,]2 [C,A,]2 [D,A,]12 | %4
 [D,A,]2 [D,A,]2 [D,A,]2 [D,D]6 [D,D]4 [D,A,]2 [D,A,]2 [D,A,]2 [D,A,]2 [D,D]6 [D,A,]6 | %5
 [E,A,]2 [C,A,]2 [B,,=G,]2 [A,,A,]6 [B,,G,]4 [C,A,]2 | %6
 [E,=G,]2 [E,G,]2 [E,G,]2 ([A,,A,]6 [C,A,]6) || [D,A,]2 [D,A,]2 [D,A,]2 [E,A,]6 [A,,A,]6 | %8
 [A,,G,]2 [A,,A,]2 [A,,G,]2 [D,F,]6 [D,A,]6 | [F,A,]2 [E,A,]2 [D,A,]2 G,6 [F,A,]4 [B,,A,]2 | %10
 [E,=G,]2 [E,A,]2 [D,G,]2 ([C,A,]6 [A,,A,]6) | %11
 [D,A,]2 [D,A,]2 [D,A,]2 [E,A,]4 [A,C]2 [A,C]6 [A,C]2 [A,E]2 [A,C]2 [D,D]6 [D,D]6 | %12
 !>![G,D]2 !>![G,D]2 !>![F,=D]2 !>![E,E]6 !>![E,E]4 !>![E,D]2 | %13
 !>![A,D]2 !>![A,C]2 !>![A,C]2 !>![D,D]12 |] %14

